public/formular-icons/english/lower-j.svg

<svg style="vertical-align:-.462ex" xmlns="http://www.w3.org/2000/svg" width=".932ex" height="1.957ex" viewBox="0 -661 412 865" xmlns:xlink="http://www.w3.org/1999/xlink"><defs><path id="a" d="M297 596q0 31 21 48t43 17q17 0 28-10t14-28q0-28-19-47t-44-19q-18 0-30 10t-13 29Zm-9-220q0 29-26 29-22 0-42-12t-35-31-24-37-17-32l-7-14q-2-1-16-1h-14q-6 6-6 8t4 13q21 49 59 92t88 50h8q7 0 12 1 24-1 44-10 25-14 38-31t13-53v-16l-49-199Q267-67 264-75q-18-50-70-89T75-204q-50 0-68 21t-19 46q0 27 19 46t46 20q17 0 29-10t13-31q0-36-32-55 6-1 14-1 34 0 62 28t43 66l11 42q11 43 26 104t32 125 27 111 11 57q0 7-1 11Z"/></defs><g stroke="currentColor" fill="currentColor" stroke-width="0"><use data-c="1D457" xlink:href="#a" transform="scale(1 -1)"/></g></svg>

<svg style="vertical-align: -0.462ex" xmlns="http://www.w3.org/2000/svg" width="0.932ex" height="1.957ex" role="img" focusable="false" viewBox="0 -661 412 865" xmlns:xlink="http://www.w3.org/1999/xlink"><defs><path id="MJX-51-TEX-I-1D457" d="M297 596Q297 627 318 644T361 661Q378 661 389 651T403 623Q403 595 384 576T340 557Q322 557 310 567T297 596ZM288 376Q288 405 262 405Q240 405 220 393T185 362T161 325T144 293L137 279Q135 278 121 278H107Q101 284 101 286T105 299Q126 348 164 391T252 441Q253 441 260 441T272 442Q296 441 316 432Q341 418 354 401T367 348V332L318 133Q267 -67 264 -75Q246 -125 194 -164T75 -204Q25 -204 7 -183T-12 -137Q-12 -110 7 -91T53 -71Q70 -71 82 -81T95 -112Q95 -148 63 -167Q69 -168 77 -168Q111 -168 139 -140T182 -74L193 -32Q204 11 219 72T251 197T278 308T289 365Q289 372 288 376Z"></path></defs><g stroke="currentColor" fill="currentColor" stroke-width="0" transform="scale(1,-1)"><g data-mml-node="math"><g data-mml-node="mi"><use data-c="1D457" xlink:href="#MJX-51-TEX-I-1D457"></use></g></g></g></svg>
